X:1
T:This Train
M:4/4
L:1/8
K:E
 E E2 G F3/2 E/2 CB,| E E- E4 z2| B B2 e c3/2 B/2 GB| B B- B4 z2| B B2 e c3/2 B/2 GE|\
 FF E/2E/2 E/2E/2 G/2G/2 E/2E/2 CB,| E E2 G F3/2 E/2 CB,| E E- E4 z2|\
